X: 34979
T: Roddy McDonald's Fancy
R: reel
M: 4/4
K: Amajor
af|:ecBd cA~AB|c2cB c2af|ecBd cAAB|cffe f2af:|
e3f a3f|ecBc efaf|ecef afef|cffe fgaf|
e2~ef a3f|ecBc efaf|ecBd cAAB|cffe f2z2|
B3c A2AB|c2cB ceaf|ecBd cAAB|cffe fgae|
BBBc A2AB|c2cB ceaf|dcBd cAAB|cffe f2ef|
a2ef aefa|efae faef|a2ef afef|cffe f2ef|
a2ba f3e|cfed ceaf|ecBd cAAB|cffe f2af|

